images/header-line.svg

<svg  viewBox="0 0 1440 275" fill="none" xmlns="http://www.w3.org/2000/svg">

<path d="M103.15 100.335L102.485 101.082L102.485 101.082L103.15 100.335ZM113.267 109.496L112.593 110.234L112.593 110.235L113.267 109.496ZM213.181 147.332L212.747 146.431L212.747 146.431L213.181 147.332ZM290.832 153.79L290.275 154.62L290.275 154.621L290.832 153.79ZM297.458 157.837L297.85 156.917L297.845 156.915L297.458 157.837ZM299.055 158.517L299.448 157.597L299.446 157.596L299.055 158.517ZM349.975 147.081L349.197 146.453L349.197 146.453L349.975 147.081ZM362.515 129.631L363.339 130.197L363.339 130.197L362.515 129.631ZM420.578 78.9182L420.592 79.9181L420.6 79.918L420.608 79.9178L420.578 78.9182ZM457.125 102.571L457.933 101.982L457.933 101.982L457.125 102.571ZM468.569 118.482L467.755 119.063L467.755 119.063L468.569 118.482ZM515.501 165.281L515.632 164.29L515.631 164.29L515.501 165.281ZM554.757 147.158L554.126 146.383L554.126 146.383L554.757 147.158ZM609.466 117.639L609.432 116.639L609.428 116.639L609.466 117.639ZM649.433 135.533L648.853 136.348L648.853 136.348L649.433 135.533ZM653.252 138.249L652.673 139.064L652.673 139.064L653.252 138.249ZM744.841 135.886L745.496 136.643L745.496 136.643L744.841 135.886ZM863.287 99.6288L863.171 100.622L863.171 100.622L863.287 99.6288ZM930.307 136.691L931.122 136.111L931.122 136.111L930.307 136.691ZM942.087 153.487L941.266 154.058L942.087 153.487ZM1008.99 220.263L1008.88 219.269L1008.88 219.269L1008.99 220.263ZM1032.74 192.165L1033.67 192.537V192.537L1032.74 192.165ZM1089.1 40.2846L1088.17 39.9244L1088.17 39.9415L1088.16 39.9589L1089.1 40.2846ZM1089.23 39.9606L1088.31 39.5627L1088.3 39.5814L1088.3 39.6004L1089.23 39.9606ZM1131.15 0.0416892L1131.22 -0.956255L1131.21 -0.956362L1131.15 0.0416892ZM1172.96 61.5863L1172 61.8588V61.8588L1172.96 61.5863ZM1187.19 115.595L1188.16 115.348V115.348L1187.19 115.595ZM1246.27 256.99L1246.22 257.989L1246.22 257.99L1246.27 256.99ZM1297.11 178.638L1298.05 178.986V178.986L1297.11 178.638ZM1377.33 64.1092L1377.5 65.0954L1377.5 65.0953L1377.33 64.1092ZM1429.7 95.0272L1428.93 95.6698L1428.93 95.6699L1429.7 95.0272ZM0.556348 112.894C1.88515 112.004 18.5034 101.046 39.2814 94.3411C60.1142 87.6181 84.7475 85.285 102.485 101.082L103.815 99.5884C85.2374 83.0431 59.6522 85.6656 38.6671 92.4378C17.6271 99.2277 0.827808 110.305 -0.556348 111.232L0.556348 112.894ZM102.485 101.082C105.835 104.065 109.2 107.135 112.593 110.234L113.942 108.758C110.55 105.66 107.175 102.58 103.815 99.5883L102.485 101.082ZM112.593 110.235C127.721 124.04 143.235 138.209 159.786 146.588C176.401 154.998 194.136 157.611 213.615 148.233L212.747 146.431C193.955 155.478 176.886 153.002 160.689 144.803C144.429 136.572 129.122 122.611 113.941 108.757L112.593 110.235ZM213.615 148.233C233.22 138.795 249.079 138.213 261.65 141.044C274.251 143.882 283.628 150.162 290.275 154.62L291.389 152.959C284.74 148.5 275.09 142.02 262.09 139.093C249.058 136.159 232.74 136.807 212.747 146.431L213.615 148.233ZM290.275 154.621C292.935 156.404 295.372 158.046 297.071 158.759L297.845 156.915C296.372 156.296 294.137 154.802 291.389 152.959L290.275 154.621ZM297.067 158.757L298.663 159.437L299.446 157.596L297.85 156.917L297.067 158.757ZM298.661 159.436C304.439 161.909 312.389 165.328 321.439 164.927C330.56 164.522 340.645 160.252 350.754 147.708L349.197 146.453C339.389 158.623 329.811 162.553 321.35 162.929C312.817 163.307 305.265 160.087 299.448 157.597L298.661 159.436ZM350.754 147.708C354.615 142.919 358.867 136.716 363.339 130.197L361.69 129.065C357.202 135.606 352.999 141.737 349.197 146.453L350.754 147.708ZM363.339 130.197C371.048 118.957 379.638 106.438 389.218 96.6813C398.812 86.9106 409.239 80.0773 420.592 79.9181L420.564 77.9183C408.411 78.0887 397.503 85.3885 387.791 95.2801C378.065 105.185 369.377 117.858 361.69 129.065L363.339 130.197ZM420.608 79.9178C420.729 79.9142 420.854 79.9141 420.995 79.9141V77.9141C420.859 77.9141 420.705 77.9141 420.549 77.9186L420.608 79.9178ZM420.995 79.9141C433.059 79.9141 444.951 87.5737 456.317 103.161L457.933 101.982C446.404 86.1712 433.989 77.9141 420.995 77.9141V79.9141ZM456.317 103.161C460.392 108.749 464.183 114.059 467.755 119.063L469.383 117.901C465.811 112.897 462.015 107.58 457.933 101.982L456.317 103.161ZM467.755 119.063C477.378 132.543 485.42 143.811 492.93 151.947C500.432 160.074 507.549 165.243 515.37 166.273L515.631 164.29C508.526 163.354 501.815 158.623 494.4 150.591C486.994 142.568 479.034 131.419 469.383 117.901L467.755 119.063ZM515.369 166.273C525.924 167.669 538.344 161.805 555.388 147.934L554.126 146.383C537.094 160.244 525.273 165.565 515.632 164.29L515.369 166.273ZM555.388 147.934C580.521 127.482 596.136 119.144 609.504 118.638L609.428 116.639C595.326 117.173 579.245 125.942 554.126 146.383L555.388 147.934ZM609.5 118.638C623.15 118.169 633.749 125.601 648.853 136.348L650.013 134.718C635.05 124.072 623.882 116.143 609.432 116.639L609.5 118.638ZM648.853 136.348L652.673 139.064L653.832 137.434L650.012 134.718L648.853 136.348ZM652.673 139.064C667.812 149.827 680.237 158.697 694.3 160.065C708.454 161.442 724.016 155.228 745.496 136.643L744.187 135.13C722.851 153.592 707.827 159.371 694.494 158.074C681.07 156.768 669.108 148.295 653.832 137.434L652.673 139.064ZM745.496 136.643C775.791 110.427 823.102 95.9367 863.171 100.622L863.403 98.6355C822.781 93.8855 774.91 108.544 744.187 135.13L745.496 136.643ZM863.171 100.622C891.899 103.979 914.802 116.671 929.493 137.272L931.122 136.111C916.056 114.984 892.606 102.048 863.403 98.6355L863.171 100.622ZM929.493 137.272C933.397 142.747 937.326 148.394 941.266 154.058L942.908 152.916C938.969 147.253 935.033 141.597 931.122 136.111L929.493 137.272ZM941.266 154.058C952.484 170.184 964.491 187.461 976.081 200.438C981.877 206.926 987.604 212.382 993.112 216.088C998.607 219.786 1004 221.822 1009.1 221.257L1008.88 219.269C1004.46 219.759 999.552 218.01 994.229 214.429C988.919 210.856 983.319 205.539 977.573 199.105C966.081 186.238 954.146 169.072 942.908 152.916L941.266 154.058ZM1009.1 221.257C1013.79 220.739 1018.17 217.94 1022.24 213.131C1026.3 208.323 1030.11 201.43 1033.67 192.537L1031.82 191.794C1028.3 200.584 1024.58 207.26 1020.71 211.84C1016.84 216.419 1012.88 218.827 1008.88 219.269L1009.1 221.257ZM1033.67 192.537C1062.68 119.999 1089.78 41.3972 1090.05 40.6103L1088.16 39.9589C1087.89 40.7408 1060.8 119.304 1031.82 191.794L1033.67 192.537ZM1090.04 40.6449L1090.16 40.3209L1088.3 39.6004L1088.17 39.9244L1090.04 40.6449ZM1090.15 40.3586C1091.06 38.2646 1095.68 28.007 1102.94 18.4706C1110.26 8.86553 1120 0.346202 1131.09 1.03974L1131.21 -0.956362C1119.02 -1.71872 1108.71 7.60051 1101.35 17.2584C1093.94 26.9851 1089.24 37.4149 1088.31 39.5627L1090.15 40.3586ZM1131.09 1.03963C1139.01 1.54867 1146.37 6.5734 1153.21 16.6506C1160.06 26.7301 1166.3 41.729 1172 61.8588L1173.93 61.3138C1168.2 41.1024 1161.89 25.8657 1154.87 15.5266C1147.84 5.18515 1140 -0.39184 1131.22 -0.956254L1131.09 1.03963ZM1172 61.8588C1176.8 78.784 1181.58 97.6124 1186.22 115.841L1188.16 115.348C1183.52 97.1256 1178.73 78.2697 1173.93 61.3138L1172 61.8588ZM1186.22 115.841C1194.16 147.057 1203.09 182.157 1212.97 209.603C1217.9 223.322 1223.09 235.186 1228.55 243.713C1231.28 247.977 1234.1 251.446 1237.01 253.898C1239.93 256.351 1243.01 257.824 1246.22 257.989L1246.32 255.992C1243.67 255.856 1241.01 254.638 1238.3 252.366C1235.59 250.092 1232.9 246.804 1230.23 242.635C1224.9 234.297 1219.77 222.599 1214.85 208.926C1205.01 181.59 1196.11 146.592 1188.16 115.348L1186.22 115.841ZM1246.22 257.99C1251.6 258.221 1258.5 254.7 1267 243.19C1275.53 231.646 1285.85 211.851 1298.05 178.986L1296.17 178.29C1284 211.089 1273.76 230.68 1265.4 242.001C1257 253.356 1250.66 256.179 1246.31 255.991L1246.22 257.99ZM1298.05 178.986C1311.5 142.757 1324.75 115.35 1337.99 96.4521C1351.24 77.5317 1364.37 67.2985 1377.5 65.0954L1377.17 63.1229C1363.24 65.4589 1349.72 76.2269 1336.35 95.3047C1322.97 114.405 1309.65 141.993 1296.17 178.29L1298.05 178.986ZM1377.5 65.0953C1388.71 63.2109 1398.62 67.3218 1407.24 73.7134C1415.88 80.1151 1423.11 88.7249 1428.93 95.6698L1430.47 94.3846C1424.67 87.4664 1417.29 78.6713 1408.43 72.1068C1399.56 65.5322 1389.1 61.1156 1377.17 63.123L1377.5 65.0953ZM1428.93 95.6699C1430.96 98.082 1432.94 100.45 1434.73 102.399C1436.49 104.324 1438.14 105.935 1439.48 106.756L1440.52 105.05C1439.45 104.395 1437.97 102.985 1436.2 101.049C1434.46 99.1381 1432.5 96.8062 1430.47 94.3845L1428.93 95.6699Z" fill="#13A7A5" mask="url(#path-1-inside-1)"/>
</svg>

<svg viewBox="0 0 1440 275" fill="none" xmlns="http://www.w3.org/2000/svg"><path d="M103.15 100.335l-.665.747.665-.747zm10.117 9.161l-.674.738v.001l.674-.739zm99.914 37.836l-.434-.901.434.901zm77.651 6.458l-.557.83v.001l.557-.831zm6.626 4.047l.392-.92-.005-.002-.387.922zm1.597.68l.393-.92-.002-.001-.391.921zm50.92-11.436l-.778-.628.778.628zm12.54-17.45l.824.566-.824-.566zm58.063-50.713l.014 1h.016l-.03-1zm36.547 23.653l.808-.589-.808.589zm11.444 15.911l-.814.581.814-.581zm46.932 46.799l.131-.991h-.001l-.13.991zm39.256-18.123l-.631-.775.631.775zm54.709-29.519l-.034-1h-.004l.038 1zm39.967 17.894l-.58.815.58-.815zm3.819 2.716l-.579.815.579-.815zm91.589-2.363l.655.757-.655-.757zm118.446-36.257l-.116.993.116-.993zm67.02 37.062l.815-.58-.815.58zm11.78 16.796l-.821.571.821-.571zm66.903 66.776l-.11-.994.11.994zm23.75-28.098l.93.372-.93-.372zm56.36-151.88l-.93-.36v.017l-.01.017.94.326zm.13-.324l-.92-.398-.01.018v.02l.93.36zM1131.15.04l.07-.997h-.01l-.06.998zm41.81 61.545l-.96.273.96-.273zm14.23 54.009l.97-.247-.97.247zm59.08 141.395l-.05.999v.001l.05-1zm50.84-78.352l.94.348-.94-.348zm80.22-114.529l.17.986-.17-.986zm52.37 30.918l-.77.643.77-.643zM.556 112.894c1.33-.89 17.947-11.848 38.725-18.553 20.833-6.723 45.467-9.056 63.204 6.741l1.33-1.494c-18.578-16.545-44.163-13.922-65.148-7.15-21.04 6.79-37.84 17.867-39.223 18.794l1.112 1.662zm101.929-11.812c3.35 2.983 6.715 6.053 10.108 9.152l1.349-1.476c-3.392-3.098-6.767-6.178-10.127-9.17l-1.33 1.494zm10.108 9.153c15.128 13.805 30.642 27.974 47.193 36.353 16.615 8.41 34.35 11.023 53.829 1.645l-.868-1.802c-18.792 9.047-35.861 6.571-52.058-1.628-16.26-8.231-31.567-22.192-46.748-36.046l-1.348 1.478zm101.022 37.998c19.605-9.438 35.464-10.02 48.035-7.189 12.601 2.838 21.978 9.118 28.625 13.576l1.114-1.661c-6.649-4.459-16.299-10.939-29.299-13.866-13.032-2.934-29.35-2.286-49.343 7.338l.868 1.802zm76.66 6.388c2.66 1.783 5.097 3.425 6.796 4.138l.774-1.844c-1.473-.619-3.708-2.113-6.456-3.956l-1.114 1.662zm6.792 4.136l1.596.68.783-1.841-1.596-.679-.783 1.84zm1.594.679c5.778 2.473 13.728 5.892 22.778 5.491 9.121-.405 19.206-4.675 29.315-17.219l-1.557-1.255c-9.808 12.17-19.386 16.1-27.847 16.476-8.533.378-16.085-2.842-21.902-5.332l-.787 1.839zm52.093-11.728c3.861-4.789 8.113-10.992 12.585-17.511l-1.649-1.132c-4.488 6.541-8.691 12.672-12.493 17.388l1.557 1.255zm12.585-17.511c7.709-11.24 16.299-23.759 25.879-33.516 9.594-9.77 20.021-16.604 31.374-16.763l-.028-2c-12.153.17-23.061 7.47-32.773 17.362-9.726 9.905-18.414 22.578-26.101 33.785l1.649 1.132zm57.269-50.28c.121-.003.246-.003.387-.003v-2c-.136 0-.29 0-.446.005l.059 1.999zm.387-.003c12.064 0 23.956 7.66 35.322 23.247l1.616-1.179c-11.529-15.81-23.944-24.068-36.938-24.068v2zm35.322 23.247c4.075 5.588 7.866 10.898 11.438 15.902l1.628-1.162c-3.572-5.004-7.368-10.321-11.45-15.919l-1.616 1.179zm11.438 15.902c9.623 13.48 17.665 24.748 25.175 32.884 7.502 8.127 14.619 13.296 22.44 14.326l.261-1.983c-7.105-.936-13.816-5.667-21.231-13.699-7.406-8.023-15.366-19.172-25.017-32.69l-1.628 1.162zm47.614 47.21c10.555 1.396 22.975-4.468 40.019-18.339l-1.262-1.551c-17.032 13.861-28.853 19.182-38.494 17.907l-.263 1.983zm40.019-18.339c25.133-20.452 40.748-28.79 54.116-29.296l-.076-1.999c-14.102.534-30.183 9.303-55.302 29.744l1.262 1.551zm54.112-29.296c13.65-.469 24.249 6.963 39.353 17.71l1.16-1.63c-14.963-10.646-26.131-18.575-40.581-18.079l.068 1.999zm39.353 17.71l3.82 2.716 1.159-1.63-3.82-2.716-1.159 1.63zm3.82 2.716c15.139 10.763 27.564 19.633 41.627 21.001 14.154 1.377 29.716-4.837 51.196-23.422l-1.309-1.513c-21.336 18.462-36.36 24.241-49.693 22.944-13.424-1.306-25.386-9.779-40.662-20.64l-1.159 1.63zm92.823-2.421c30.295-26.216 77.606-40.706 117.675-36.021l.232-1.987c-40.622-4.75-88.493 9.909-119.216 36.495l1.309 1.513zm117.675-36.021c28.728 3.357 51.631 16.049 66.322 36.65l1.629-1.161c-15.066-21.127-38.516-34.063-67.719-37.475l-.232 1.986zm66.322 36.65c3.904 5.475 7.833 11.122 11.773 16.786l1.642-1.142c-3.939-5.663-7.875-11.319-11.786-16.805l-1.629 1.161zm11.773 16.786c11.218 16.126 23.225 33.403 34.815 46.38 5.796 6.488 11.523 11.944 17.031 15.65 5.495 3.698 10.888 5.734 15.988 5.169l-.22-1.988c-4.42.49-9.328-1.259-14.651-4.84-5.31-3.573-10.91-8.89-16.656-15.324-11.492-12.867-23.427-30.033-34.665-46.189l-1.642 1.142zm67.834 67.199c4.69-.518 9.07-3.317 13.14-8.126 4.06-4.808 7.87-11.701 11.43-20.594l-1.85-.743c-3.52 8.79-7.24 15.466-11.11 20.046-3.87 4.579-7.83 6.987-11.83 7.429l.22 1.988zm24.57-28.72c29.01-72.538 56.11-151.14 56.38-151.927l-1.89-.651c-.27.782-27.36 79.345-56.34 151.835l1.85.743zm56.37-151.892l.12-.324-1.86-.72-.13.323 1.87.72zm.11-.286c.91-2.094 5.53-12.352 12.79-21.888 7.32-9.605 17.06-18.125 28.15-17.431l.12-1.996c-12.19-.763-22.5 8.557-29.86 18.214-7.41 9.727-12.11 20.157-13.04 22.305l1.84.796zm40.94-39.32c7.92.51 15.28 5.534 22.12 15.612 6.85 10.08 13.09 25.078 18.79 45.208l1.93-.545c-5.73-20.212-12.04-35.448-19.06-45.787C1147.84 5.185 1140-.392 1131.22-.956l-.13 1.996zM1172 61.86c4.8 16.925 9.58 35.753 14.22 53.982l1.94-.493c-4.64-18.222-9.43-37.078-14.23-54.034l-1.93.545zm14.22 53.982c7.94 31.216 16.87 66.316 26.75 93.762 4.93 13.719 10.12 25.583 15.58 34.11 2.73 4.264 5.55 7.733 8.46 10.185 2.92 2.453 6 3.926 9.21 4.091l.1-1.997c-2.65-.136-5.31-1.354-8.02-3.626-2.71-2.274-5.4-5.562-8.07-9.731-5.33-8.338-10.46-20.036-15.38-33.709-9.84-27.336-18.74-62.334-26.69-93.578l-1.94.493zm60 142.149c5.38.231 12.28-3.29 20.78-14.8 8.53-11.544 18.85-31.339 31.05-64.204l-1.88-.696c-12.17 32.799-22.41 52.39-30.77 63.711-8.4 11.355-14.74 14.178-19.09 13.99l-.09 1.999zm51.83-79.004c13.45-36.229 26.7-63.636 39.94-82.534 13.25-18.92 26.38-29.153 39.51-31.357l-.33-1.972c-13.93 2.336-27.45 13.104-40.82 32.182-13.38 19.1-26.7 46.688-40.18 82.985l1.88.696zm79.45-113.89c11.21-1.885 21.12 2.226 29.74 8.617 8.64 6.402 15.87 15.012 21.69 21.957l1.54-1.285c-5.8-6.919-13.18-15.714-22.04-22.278-8.87-6.575-19.33-10.991-31.26-8.984l.33 1.972zm51.43 30.574c2.03 2.412 4.01 4.78 5.8 6.729 1.76 1.925 3.41 3.536 4.75 4.357l1.04-1.706c-1.07-.655-2.55-2.065-4.32-4.001-1.74-1.91-3.7-4.243-5.73-6.665l-1.54 1.286z" fill="#13A7A5" mask="url(#path-1-inside-1)"/></svg>
